front-end/src/assets/icon-above-font.svg

<?xml version="1.0" encoding="UTF-8" standalone="no"?>
<svg
   xmlns:dc="http://purl.org/dc/elements/1.1/"
   xmlns:cc="http://creativecommons.org/ns#"
   xmlns:rdf="http://www.w3.org/1999/02/22-rdf-syntax-ns#"
   xmlns:svg="http://www.w3.org/2000/svg"
   xmlns="http://www.w3.org/2000/svg"
   xmlns:sodipodi="http://sodipodi.sourceforge.net/DTD/sodipodi-0.dtd"
   xmlns:inkscape="http://www.inkscape.org/namespaces/inkscape"
   data-v-1084b650=""
   viewBox="0 0 300 183"
   version="1.1"
   id="svg16"
   sodipodi:docname="icon-above-font.svg"
   inkscape:version="0.92.5 (2060ec1f9f, 2020-04-08)"
   width="300"
   height="183">
  <metadata
     id="metadata22">
    <rdf:RDF>
      <cc:Work
         rdf:about="">
        <dc:format>image/svg+xml</dc:format>
        <dc:type
           rdf:resource="http://purl.org/dc/dcmitype/StillImage" />
        <dc:title></dc:title>
      </cc:Work>
    </rdf:RDF>
  </metadata>
  <defs
     id="defs20" />
  <sodipodi:namedview
     pagecolor="#ffffff"
     bordercolor="#666666"
     borderopacity="1"
     objecttolerance="10"
     gridtolerance="10"
     guidetolerance="10"
     inkscape:pageopacity="0"
     inkscape:pageshadow="2"
     inkscape:window-width="1070"
     inkscape:window-height="770"
     id="namedview18"
     showgrid="false"
     inkscape:zoom="0.78666667"
     inkscape:cx="150"
     inkscape:cy="150"
     inkscape:window-x="473"
     inkscape:window-y="94"
     inkscape:window-maximized="0"
     inkscape:current-layer="svg16" />
  <!---->
  <!---->
  <!---->
  <g
     data-v-1084b650=""
     id="7e319840-739a-a0f1-f316-ea813584ba79"
     transform="matrix(2.8,0,0,2.8,30.621996,110.12059)"
     style="fill:#fd2d01">
    <path
       d="m 5.41,12.67 v 0 q -2.18,0 -3.65,-1.47 v 0 0 Q 0.29,9.73 0.29,7.53 v 0 0 q 0,-2.16 1.47,-3.64 v 0 0 Q 3.23,2.42 5.41,2.42 v 0 0 q 2.19,0 3.76,1.37 v 0 L 7.81,5.28 v 0 Q 6.76,4.46 5.41,4.46 v 0 0 Q 4.03,4.47 3.18,5.33 v 0 0 Q 2.34,6.18 2.34,7.51 v 0 0 q 0,1.43 0.85,2.27 v 0 0 q 0.85,0.84 2.23,0.84 v 0 0 q 1.11,0 1.7,-0.43 v 0 -1.76 L 5.76,8.44 V 6.52 h 3.41 v 4.79 0 q -1.56,1.36 -3.76,1.36 z m 7.43,-6.84 v 0.76 0 q 0.74,-0.75 1.79,-0.75 v 0 0 q 0.33,0 0.63,0.05 v 0 l -0.3,1.89 v 0 Q 14.63,7.48 14.01,7.46 v 0 0 q -0.7,0.05 -1.17,1.01 v 0 4.2 H 10.93 V 6.04 Z m 6.77,6.91 v 0 q -1.49,0 -2.49,-1 v 0 0 q -0.99,-1 -0.99,-2.48 v 0 0 q 0,-1.49 0.99,-2.49 v 0 0 q 1,-1 2.49,-1 v 0 0 q 1.49,0 2.49,1 v 0 0 q 1,1 1,2.49 v 0 0 q 0,1.49 -1,2.48 v 0 0 q -1,1 -2.49,1 z m 0,-1.65 v 0 0 q 0.77,0 1.26,-0.53 v 0 0 q 0.49,-0.52 0.49,-1.3 v 0 0 q 0,-0.78 -0.49,-1.3 v 0 0 Q 20.38,7.43 19.6,7.43 v 0 0 q -0.77,0 -1.26,0.53 v 0 0 q -0.48,0.52 -0.48,1.3 v 0 0 q 0,0.78 0.48,1.3 v 0 0 q 0.49,0.53 1.27,0.53 z m 8.91,-0.84 v 0 -4.42 h 1.91 v 6.84 h -1.91 v -0.62 0 q -0.69,0.62 -1.64,0.62 v 0 0 q -1.3,0 -1.98,-0.79 v 0 0 q -0.69,-0.79 -0.69,-1.81 v 0 -4.24 h 1.92 v 3.76 0 q 0,0.68 0.34,1.06 v 0 0 q 0.34,0.38 1.03,0.4 v 0 0 q 0.6,-0.04 1.02,-0.8 z m 5.45,5.3 -1.91,-0.01 v -9.5 l 1.91,-0.21 v 0.55 0 q 0.77,-0.55 1.51,-0.55 v 0 0 q 1.57,0 2.49,1.03 v 0 0 q 0.93,1.02 0.93,2.39 v 0 0 q 0,1.37 -0.93,2.39 v 0 0 q -0.92,1.03 -2.49,1.03 v 0 0 Q 34.45,12.6 33.97,12.11 v 0 z m 0,-6.92 v 0 1.11 0 q 0.14,1.15 1.44,1.35 v 0 0 q 1.64,-0.13 1.85,-1.7 v 0 0 Q 37.19,7.47 35.41,7.4 v 0 0 q -1.3,0.21 -1.44,1.23 z m 9.38,4.11 v 0 q -1.49,0 -2.48,-1 v 0 0 q -1,-1 -1,-2.48 v 0 0 q 0,-1.49 1,-2.49 v 0 0 q 0.99,-1 2.48,-1 v 0 0 q 1.49,0 2.49,1 v 0 0 q 1,1 1,2.49 v 0 0 q 0,1.49 -1,2.48 v 0 0 q -1,1 -2.49,1 z m 0,-1.65 v 0 0 q 0.78,0 1.26,-0.53 v 0 0 q 0.49,-0.52 0.49,-1.3 v 0 0 q 0,-0.78 -0.49,-1.3 v 0 0 Q 44.13,7.43 43.34,7.43 v 0 0 q -0.77,0 -1.26,0.53 v 0 0 Q 41.6,8.48 41.6,9.26 v 0 0 q 0,0.78 0.48,1.3 v 0 0 q 0.49,0.53 1.27,0.53 z M 50.03,8.3 v 0 4.37 H 48.11 V 6.04 l 1.92,-0.21 v 0.61 0 q 0.64,-0.6 1.64,-0.6 v 0 0 q 1.29,0 1.98,0.78 v 0 0 Q 54.4,5.84 55.9,5.84 v 0 0 q 1.3,0 1.99,0.78 v 0 0 q 0.68,0.79 0.68,1.82 v 0 4.23 h -1.91 v -3.76 0 q 0,-0.68 -0.31,-1.06 v 0 0 q -0.31,-0.37 -1,-0.39 v 0 0 Q 54.78,7.5 54.37,8.21 v 0 0 q -0.04,0.21 -0.04,0.43 v 0 4.03 h -1.91 v -3.76 0 q 0,-0.68 -0.31,-1.06 v 0 0 q -0.31,-0.37 -1,-0.39 v 0 0 Q 50.48,7.5 50.03,8.3 Z M 61.14,7.82 60.39,6.66 v 0 q 1.3,-0.82 3.01,-0.82 v 0 0 q 1.23,0 1.94,0.68 v 0 0 q 0.72,0.69 0.72,2.05 v 0 4.1 h -1.91 v -0.54 0 q -0.84,0.54 -1.51,0.54 v 0 0 q -1.36,0 -2.05,-0.58 v 0 0 q -0.68,-0.58 -0.68,-1.6 v 0 0 q 0,-0.96 0.65,-1.71 v 0 0 Q 61.2,8.03 62.64,8.03 v 0 0 q 0.67,0 1.51,0.41 v 0 -0.21 0 Q 64.13,7.48 63.05,7.41 v 0 0 q -1.23,0 -1.91,0.41 z m 3.01,2.8 v 0 -0.77 0 Q 63.88,9.32 62.85,9.32 v 0 0 q -1.23,0.14 -1.3,0.96 v 0 0 q 0.07,0.81 1.3,0.88 v 0 0 q 1.03,0 1.3,-0.54 z m 5.54,-2.29 v 0 4.34 H 67.77 V 6.04 l 1.92,-0.21 v 0.62 0 q 0.69,-0.61 1.64,-0.61 v 0 0 q 1.3,0 1.98,0.78 v 0 0 q 0.68,0.79 0.68,1.82 v 0 4.23 h -1.91 v -3.76 0 q 0,-0.68 -0.34,-1.06 v 0 0 Q 71.39,7.48 70.7,7.46 v 0 0 Q 70.11,7.5 69.69,8.33 Z m 7.82,4.34 H 75.6 V 5.83 h 1.91 z M 75.53,4.2 v 0 0 q 0,0.41 0.27,0.68 v 0 0 q 0.28,0.27 0.76,0.27 v 0 0 q 0.47,0 0.75,-0.27 v 0 0 Q 77.58,4.61 77.58,4.2 v 0 0 q 0,-0.41 -0.27,-0.69 v 0 0 Q 77.03,3.23 76.54,3.23 v 0 0 q -0.46,0 -0.74,0.28 v 0 0 Q 75.53,3.79 75.53,4.2 Z m 4.53,3.62 -0.75,-1.16 v 0 q 1.3,-0.82 3.01,-0.82 v 0 0 q 1.23,0 1.95,0.68 v 0 0 q 0.71,0.69 0.71,2.05 v 0 4.1 h -1.91 v -0.54 0 q -0.83,0.54 -1.5,0.54 v 0 0 q -1.37,0 -2.05,-0.58 v 0 0 q -0.69,-0.58 -0.69,-1.6 v 0 0 q 0,-0.96 0.65,-1.71 v 0 0 q 0.64,-0.75 2.09,-0.75 v 0 0 q 0.66,0 1.5,0.41 v 0 -0.21 0 Q 83.06,7.48 81.98,7.41 v 0 0 q -1.23,0 -1.92,0.41 z m 3.01,2.8 v 0 -0.77 0 Q 82.8,9.32 81.77,9.32 v 0 0 q -1.23,0.14 -1.3,0.96 v 0 0 q 0.07,0.81 1.3,0.88 v 0 0 q 1.03,0 1.3,-0.54 z"
       id="path4"
       inkscape:connector-curvature="0" />
  </g>
  <!---->
  <g
     data-v-1084b650=""
     id="4cb061db-73fa-16fe-1d0a-15980590225e"
     transform="matrix(0.29317377,0,0,0.29317377,106.02393,53.127285)"
     style="fill:#fd2d01;stroke:none;fill-opacity:1">
    <svg
       viewBox="-205 207 100 100"
       version="1.1"
       id="svg13"
       style="fill:#fd2d01;fill-opacity:1"
       width="100%"
       height="100%">
      <switch
         id="switch11"
         style="fill:#fd2d01;fill-opacity:1">
        <g
           id="g9"
           style="fill:#fd2d01;fill-opacity:1">
          <path
             d="m -155,298.8 c 11.2,0 21.7,-4.3 29.6,-12.2 7.9,-7.9 12.2,-18.4 12.2,-29.6 0,-11.2 -4.3,-21.7 -12.2,-29.6 -7.9,-7.9 -18.4,-12.2 -29.6,-12.2 -11.2,0 -21.7,4.3 -29.6,12.2 -7.9,7.9 -12.2,18.4 -12.2,29.6 0,11.2 4.3,21.7 12.2,29.6 7.9,7.9 18.4,12.2 29.6,12.2 z m 2.4,-7.1 c -0.8,0.1 -1.6,0.1 -2.4,0.1 -1.1,0 -2.2,-0.1 -3.3,-0.2 -3.6,-5.6 -6.3,-11.6 -7.9,-17.9 h 17.7 c 0.6,1.5 1.7,2.9 3,3.8 -1.7,5 -4.1,9.7 -7.1,14.2 z m 9.5,-2 c 1.9,-3.5 3.4,-7 4.6,-10.7 2.9,-0.6 5.2,-2.6 6.3,-5.3 h 7.7 c -4,7.3 -10.7,13 -18.6,16 z m 22.8,-32.7 c 0,3.3 -0.5,6.5 -1.3,9.6 h -10.8 c -0.6,-1.3 -1.6,-2.5 -2.8,-3.4 0.2,-2.2 0.3,-4.4 0.3,-6.6 0,-3.1 -0.2,-6.2 -0.6,-9.2 h 13.8 c 1,3 1.4,6.3 1.4,9.6 z m -4.2,-16.7 h -12.2 c -1.3,-5.5 -3.2,-10.7 -5.8,-15.7 7.6,2.9 14,8.6 18,15.7 z m -17.4,16.3 c 0,1.7 -0.1,3.4 -0.2,5.1 -2.8,0.6 -5.1,2.4 -6.2,4.9 h -19.3 c -0.4,-3 -0.7,-6.1 -0.7,-9.1 0,-1.9 0.1,-3.8 0.3,-5.7 2.6,-0.5 4.7,-2.2 6,-4.4 h 19.5 c 0.4,3 0.6,6.1 0.6,9.2 z m -15.7,-34.2 c 0.9,-0.1 1.8,-0.1 2.6,-0.1 1,0 2,0 3,0.1 3.6,5.6 6.3,11.6 7.9,17.9 h -17.4 c -0.6,-1.7 -1.7,-3.2 -3.1,-4.3 1.8,-4.8 4.1,-9.3 7,-13.6 z m -9.5,2 c -1.7,3.2 -3.2,6.6 -4.4,10 -3.1,0.6 -5.6,2.9 -6.6,5.8 h -7.3 c 3.9,-7.1 10.4,-12.8 18.3,-15.8 z m -22.6,32.6 c 0,-3.3 0.5,-6.6 1.4,-9.6 h 10.9 c 0.6,1.1 1.5,2.1 2.5,2.9 -0.2,2.4 -0.4,4.8 -0.4,7.2 0,3.1 0.2,6.1 0.6,9.1 h -13.6 c -1,-3.1 -1.4,-6.3 -1.4,-9.6 z m 16.2,16.6 c 1.3,5.4 3.2,10.7 5.8,15.7 -7.6,-3 -13.9,-8.6 -17.8,-15.7 z"
             id="path7"
             style="fill:#fd2d01;fill-opacity:1"
             inkscape:connector-curvature="0" />
        </g>
      </switch>
    </svg>
  </g>
</svg>

<svg data-v-1084b650="" xmlns="http://www.w3.org/2000/svg" viewBox="0 0 300 300"><!----> <!----> <rect data-v-1084b650="" fill="#FFFFFF" x="0" y="0" width="300px" height="300px" class="logo-background-square"></rect> <!----> <g data-v-1084b650="" id="7e319840-739a-a0f1-f316-ea813584ba79" fill="#FD2D01" transform="matrix(2.8,0,0,2.8,30.62199562788011,167.12059412002563)"><path d="M5.41 12.67L5.41 12.67Q3.23 12.67 1.76 11.20L1.76 11.20L1.76 11.20Q0.29 9.73 0.29 7.53L0.29 7.53L0.29 7.53Q0.29 5.37 1.76 3.89L1.76 3.89L1.76 3.89Q3.23 2.42 5.41 2.42L5.41 2.42L5.41 2.42Q7.60 2.42 9.17 3.79L9.17 3.79L7.81 5.28L7.81 5.28Q6.76 4.46 5.41 4.46L5.41 4.46L5.41 4.46Q4.03 4.47 3.18 5.33L3.18 5.33L3.18 5.33Q2.34 6.18 2.34 7.51L2.34 7.51L2.34 7.51Q2.34 8.94 3.19 9.78L3.19 9.78L3.19 9.78Q4.04 10.62 5.42 10.62L5.42 10.62L5.42 10.62Q6.53 10.62 7.12 10.19L7.12 10.19L7.12 8.43L5.76 8.44L5.76 6.52L9.17 6.52L9.17 11.31L9.17 11.31Q7.61 12.67 5.41 12.67L5.41 12.67ZM12.84 5.83L12.84 6.59L12.84 6.59Q13.58 5.84 14.63 5.84L14.63 5.84L14.63 5.84Q14.96 5.84 15.26 5.89L15.26 5.89L14.96 7.78L14.96 7.78Q14.63 7.48 14.01 7.46L14.01 7.46L14.01 7.46Q13.31 7.51 12.84 8.47L12.84 8.47L12.84 12.67L10.93 12.67L10.93 6.04L12.84 5.83ZM19.61 12.74L19.61 12.74Q18.12 12.74 17.12 11.74L17.12 11.74L17.12 11.74Q16.13 10.74 16.13 9.26L16.13 9.26L16.13 9.26Q16.13 7.77 17.12 6.77L17.12 6.77L17.12 6.77Q18.12 5.77 19.61 5.77L19.61 5.77L19.61 5.77Q21.10 5.77 22.10 6.77L22.10 6.77L22.10 6.77Q23.10 7.77 23.10 9.26L23.10 9.26L23.10 9.26Q23.10 10.75 22.10 11.74L22.10 11.74L22.10 11.74Q21.10 12.74 19.61 12.74L19.61 12.74ZM19.61 11.09L19.61 11.09L19.61 11.09Q20.38 11.09 20.87 10.56L20.87 10.56L20.87 10.56Q21.36 10.04 21.36 9.26L21.36 9.26L21.36 9.26Q21.36 8.48 20.87 7.96L20.87 7.96L20.87 7.96Q20.38 7.43 19.60 7.43L19.60 7.43L19.60 7.43Q18.83 7.43 18.34 7.96L18.34 7.96L18.34 7.96Q17.86 8.48 17.86 9.26L17.86 9.26L17.86 9.26Q17.86 10.04 18.34 10.56L18.34 10.56L18.34 10.56Q18.83 11.09 19.61 11.09ZM28.52 10.25L28.52 10.25L28.52 5.83L30.43 5.83L30.43 12.67L28.52 12.67L28.52 12.05L28.52 12.05Q27.83 12.67 26.88 12.67L26.88 12.67L26.88 12.67Q25.58 12.67 24.90 11.88L24.90 11.88L24.90 11.88Q24.21 11.09 24.21 10.07L24.21 10.07L24.21 5.83L26.13 5.83L26.13 9.59L26.13 9.59Q26.13 10.27 26.47 10.65L26.47 10.65L26.47 10.65Q26.81 11.03 27.50 11.05L27.50 11.05L27.50 11.05Q28.10 11.01 28.52 10.25ZM33.97 15.55L32.06 15.54L32.06 6.04L33.97 5.83L33.97 6.38L33.97 6.38Q34.74 5.83 35.48 5.83L35.48 5.83L35.48 5.83Q37.05 5.83 37.97 6.86L37.97 6.86L37.97 6.86Q38.90 7.88 38.90 9.25L38.90 9.25L38.90 9.25Q38.90 10.62 37.97 11.64L37.97 11.64L37.97 11.64Q37.05 12.67 35.48 12.67L35.48 12.67L35.48 12.67Q34.45 12.60 33.97 12.11L33.97 12.11L33.97 15.55ZM33.97 8.63L33.97 8.63L33.97 9.74L33.97 9.74Q34.11 10.89 35.41 11.09L35.41 11.09L35.41 11.09Q37.05 10.96 37.26 9.39L37.26 9.39L37.26 9.39Q37.19 7.47 35.41 7.40L35.41 7.40L35.41 7.40Q34.11 7.61 33.97 8.63ZM43.35 12.74L43.35 12.74Q41.86 12.74 40.87 11.74L40.87 11.74L40.87 11.74Q39.87 10.74 39.87 9.26L39.87 9.26L39.87 9.26Q39.87 7.77 40.87 6.77L40.87 6.77L40.87 6.77Q41.86 5.77 43.35 5.77L43.35 5.77L43.35 5.77Q44.84 5.77 45.84 6.77L45.84 6.77L45.84 6.77Q46.84 7.77 46.84 9.26L46.84 9.26L46.84 9.26Q46.84 10.75 45.84 11.74L45.84 11.74L45.84 11.74Q44.84 12.74 43.35 12.74L43.35 12.74ZM43.35 11.09L43.35 11.09L43.35 11.09Q44.13 11.09 44.61 10.56L44.61 10.56L44.61 10.56Q45.10 10.04 45.10 9.26L45.10 9.26L45.10 9.26Q45.10 8.48 44.61 7.96L44.61 7.96L44.61 7.96Q44.13 7.43 43.34 7.43L43.34 7.43L43.34 7.43Q42.57 7.43 42.08 7.96L42.08 7.96L42.08 7.96Q41.60 8.48 41.60 9.26L41.60 9.26L41.60 9.26Q41.60 10.04 42.08 10.56L42.08 10.56L42.08 10.56Q42.57 11.09 43.35 11.09ZM50.03 8.30L50.03 8.30L50.03 12.67L48.11 12.67L48.11 6.04L50.03 5.83L50.03 6.44L50.03 6.44Q50.67 5.84 51.67 5.84L51.67 5.84L51.67 5.84Q52.96 5.84 53.65 6.62L53.65 6.62L53.65 6.62Q54.40 5.84 55.90 5.84L55.90 5.84L55.90 5.84Q57.20 5.84 57.89 6.62L57.89 6.62L57.89 6.62Q58.57 7.41 58.57 8.44L58.57 8.44L58.57 12.67L56.66 12.67L56.66 8.91L56.66 8.91Q56.66 8.23 56.35 7.85L56.35 7.85L56.35 7.85Q56.04 7.48 55.35 7.46L55.35 7.46L55.35 7.46Q54.78 7.50 54.37 8.21L54.37 8.21L54.37 8.21Q54.33 8.42 54.33 8.64L54.33 8.64L54.33 12.67L52.42 12.67L52.42 8.91L52.42 8.91Q52.42 8.23 52.11 7.85L52.11 7.85L52.11 7.85Q51.80 7.48 51.11 7.46L51.11 7.46L51.11 7.46Q50.48 7.50 50.03 8.30ZM61.14 7.82L60.39 6.66L60.39 6.66Q61.69 5.84 63.40 5.84L63.40 5.84L63.40 5.84Q64.63 5.84 65.34 6.52L65.34 6.52L65.34 6.52Q66.06 7.21 66.06 8.57L66.06 8.57L66.06 12.67L64.15 12.67L64.15 12.13L64.15 12.13Q63.31 12.67 62.64 12.67L62.64 12.67L62.64 12.67Q61.28 12.67 60.59 12.09L60.59 12.09L60.59 12.09Q59.91 11.51 59.91 10.49L59.91 10.49L59.91 10.49Q59.91 9.53 60.56 8.78L60.56 8.78L60.56 8.78Q61.20 8.03 62.64 8.03L62.64 8.03L62.64 8.03Q63.31 8.03 64.15 8.44L64.15 8.44L64.15 8.23L64.15 8.23Q64.13 7.48 63.05 7.41L63.05 7.41L63.05 7.41Q61.82 7.41 61.14 7.82L61.14 7.82ZM64.15 10.62L64.15 10.62L64.15 9.85L64.15 9.85Q63.88 9.32 62.85 9.32L62.85 9.32L62.85 9.32Q61.62 9.46 61.55 10.28L61.55 10.28L61.55 10.28Q61.62 11.09 62.85 11.16L62.85 11.16L62.85 11.16Q63.88 11.16 64.15 10.62ZM69.69 8.33L69.69 8.33L69.69 12.67L67.77 12.67L67.77 6.04L69.69 5.83L69.69 6.45L69.69 6.45Q70.38 5.84 71.33 5.84L71.33 5.84L71.33 5.84Q72.63 5.84 73.31 6.62L73.31 6.62L73.31 6.62Q73.99 7.41 73.99 8.44L73.99 8.44L73.99 12.67L72.08 12.67L72.08 8.91L72.08 8.91Q72.08 8.23 71.74 7.85L71.74 7.85L71.74 7.85Q71.39 7.48 70.70 7.46L70.70 7.46L70.70 7.46Q70.11 7.50 69.69 8.33ZM77.51 12.67L75.60 12.67L75.60 5.83L77.51 5.83L77.51 12.67ZM75.53 4.20L75.53 4.20L75.53 4.20Q75.53 4.61 75.80 4.88L75.80 4.88L75.80 4.88Q76.08 5.15 76.56 5.15L76.56 5.15L76.56 5.15Q77.03 5.15 77.31 4.88L77.31 4.88L77.31 4.88Q77.58 4.61 77.58 4.20L77.58 4.20L77.58 4.20Q77.58 3.79 77.31 3.51L77.31 3.51L77.31 3.51Q77.03 3.23 76.54 3.23L76.54 3.23L76.54 3.23Q76.08 3.23 75.80 3.51L75.80 3.51L75.80 3.51Q75.53 3.79 75.53 4.20ZM80.06 7.82L79.31 6.66L79.31 6.66Q80.61 5.84 82.32 5.84L82.32 5.84L82.32 5.84Q83.55 5.84 84.27 6.52L84.27 6.52L84.27 6.52Q84.98 7.21 84.98 8.57L84.98 8.57L84.98 12.67L83.07 12.67L83.07 12.13L83.07 12.13Q82.24 12.67 81.57 12.67L81.57 12.67L81.57 12.67Q80.20 12.67 79.52 12.09L79.52 12.09L79.52 12.09Q78.83 11.51 78.83 10.49L78.83 10.49L78.83 10.49Q78.83 9.53 79.48 8.78L79.48 8.78L79.48 8.78Q80.12 8.03 81.57 8.03L81.57 8.03L81.57 8.03Q82.23 8.03 83.07 8.44L83.07 8.44L83.07 8.23L83.07 8.23Q83.06 7.48 81.98 7.41L81.98 7.41L81.98 7.41Q80.75 7.41 80.06 7.82L80.06 7.82ZM83.07 10.62L83.07 10.62L83.07 9.85L83.07 9.85Q82.80 9.32 81.77 9.32L81.77 9.32L81.77 9.32Q80.54 9.46 80.47 10.28L80.47 10.28L80.47 10.28Q80.54 11.09 81.77 11.16L81.77 11.16L81.77 11.16Q82.80 11.16 83.07 10.62Z"></path></g> <!----> <g data-v-1084b650="" id="4cb061db-73fa-16fe-1d0a-15980590225e" stroke="none" fill="#FFD7D7" transform="matrix(0.2931737713407769,0,0,0.2931737713407769,106.0239289062273,82.12728504171139)"><svg xmlns="http://www.w3.org/2000/svg" viewBox="-205 207 100 100"><switch><g><path d="M-155 298.8c11.2 0 21.7-4.3 29.6-12.2 7.9-7.9 12.2-18.4 12.2-29.6 0-11.2-4.3-21.7-12.2-29.6-7.9-7.9-18.4-12.2-29.6-12.2s-21.7 4.3-29.6 12.2c-7.9 7.9-12.2 18.4-12.2 29.6 0 11.2 4.3 21.7 12.2 29.6 7.9 7.9 18.4 12.2 29.6 12.2zm2.4-7.1c-.8.1-1.6.1-2.4.1-1.1 0-2.2-.1-3.3-.2-3.6-5.6-6.3-11.6-7.9-17.9h17.7c.6 1.5 1.7 2.9 3 3.8-1.7 5-4.1 9.7-7.1 14.2zm9.5-2c1.9-3.5 3.4-7 4.6-10.7 2.9-.6 5.2-2.6 6.3-5.3h7.7c-4 7.3-10.7 13-18.6 16zm22.8-32.7c0 3.3-.5 6.5-1.3 9.6h-10.8c-.6-1.3-1.6-2.5-2.8-3.4.2-2.2.3-4.4.3-6.6 0-3.1-.2-6.2-.6-9.2h13.8c1 3 1.4 6.3 1.4 9.6zm-4.2-16.7h-12.2c-1.3-5.5-3.2-10.7-5.8-15.7 7.6 2.9 14 8.6 18 15.7zm-17.4 16.3c0 1.7-.1 3.4-.2 5.1-2.8.6-5.1 2.4-6.2 4.9h-19.3c-.4-3-.7-6.1-.7-9.1 0-1.9.1-3.8.3-5.7 2.6-.5 4.7-2.2 6-4.4h19.5c.4 3 .6 6.1.6 9.2zm-15.7-34.2c.9-.1 1.8-.1 2.6-.1 1 0 2 0 3 .1 3.6 5.6 6.3 11.6 7.9 17.9h-17.4c-.6-1.7-1.7-3.2-3.1-4.3 1.8-4.8 4.1-9.3 7-13.6zm-9.5 2c-1.7 3.2-3.2 6.6-4.4 10-3.1.6-5.6 2.9-6.6 5.8h-7.3c3.9-7.1 10.4-12.8 18.3-15.8zm-22.6 32.6c0-3.3.5-6.6 1.4-9.6h10.9c.6 1.1 1.5 2.1 2.5 2.9-.2 2.4-.4 4.8-.4 7.2 0 3.1.2 6.1.6 9.1h-13.6c-1-3.1-1.4-6.3-1.4-9.6zm16.2 16.6c1.3 5.4 3.2 10.7 5.8 15.7-7.6-3-13.9-8.6-17.8-15.7h12z"></path></g></switch></svg></g></svg>
